X:0279
T:La Counterfaitte.
M:6/8
L:1/8
Q:3/8=112
I: :: ::
Z:Jack Campin * www.campin.me.uk * 2009
K:G
D   |G2G G2D|A2D B2d|c2B A2G|FGA D2
D   |G2G G2D|A2D B2d|c2B BAG|AGF G2:|
B/d/|e2G Gce|d2G GBd|c2B A2G|FGA D2
B/d/|e2G Gce|d2G GBd|c2B BAG|AGF G2:|
<end>
<start>
